X: 4008
T: PEGGIE'S DUMPLING
C: Carl Volti
R: Reel.
%R: reel
B: James Kerr "Merry Melodies" v.4 p.04 #8
Z: 2016 John Chambers <jc:trillian.mit.edu>
M: C|
L: 1/8
K: A
|:\
(ce)ea f2df | e2ce d2Bd |\
(ce)ea f2df | ecAc B2A2 ::\
cBAB ceec | dfec Bcde |\
cBAB ceec | dfec B2A2 :|

%%sep 1 1 500
%%sep 1 1 500

